assets/logistics-color/LogisticsColor5.svg

<svg xmlns="http://www.w3.org/2000/svg" id="Layer_1" x="0" y="0" version="1.1" viewBox="0 0 256 256" xml:space="preserve"><style>.st0{fill:#fff}.st1{fill:#48386a}.st2{fill:#9feaff}</style><path d="M46.6 71.2V44h87.6v38.7h-20.6v31.1h-67v-38z" class="st0"/><path d="M113.6 114.8h-67c-.6 0-1-.4-1-1v-38c0-.6.4-1 1-1s1 .4 1 1v37h65V82.7c0-.6.4-1 1-1h19.5V45H47.6v26.1c0 .6-.4 1-1 1s-1-.4-1-1V44c0-.6.4-1 1-1h87.6c.6 0 1 .4 1 1v38.7c0 .6-.4 1-1 1h-19.5v30.1c-.1.6-.5 1-1.1 1z" class="st1"/><path d="M211.1 32.7v50h-76.9V44H89.3V7.8h121.8v19.9z" class="st0"/><path d="M211.1 83.7h-77c-.6 0-1-.4-1-1V45H89.3c-.6 0-1-.4-1-1V7.8c0-.6.4-1 1-1h121.8c.6 0 1 .4 1 1v19.9c0 .6-.4 1-1 1s-1-.4-1-1V8.8H90.3V43h43.8c.6 0 1 .4 1 1v37.7h75v-49c0-.6.4-1 1-1s1 .4 1 1v50c0 .5-.4 1-1 1z" class="st1"/><path d="M113.6 82.7h116.3v111.2H113.6z" class="st0"/><path d="M229.9 194.8H113.6c-.6 0-1-.4-1-1V82.7c0-.6.4-1 1-1h116.3c.6 0 1 .4 1 1v111.2c0 .5-.4.9-1 .9zm-115.3-2h114.3V83.7H114.6v109.1z" class="st1"/><path d="M79.8 204.1H15.7c-2.8 0-5-2.2-5-5v-.3c0-2.8 2.2-5 5-5h224.7c2.8 0 5 2.2 5 5v.3c0 2.8-2.2 5-5 5H79.8z" class="st0"/><path d="M240.3 205.1H85.5c-.6 0-1-.4-1-1s.4-1 1-1h154.8c2.2 0 4-1.8 4-4v-.3c0-2.2-1.8-4-4-4H15.7c-2.2 0-4 1.8-4 4v.3c0 2.2 1.8 4 4 4h64.2c.6 0 1 .4 1 1s-.4 1-1 1H15.7c-3.3 0-6-2.7-6-6v-.3c0-3.3 2.7-6 6-6h224.7c3.3 0 6 2.7 6 6v.3c-.1 3.3-2.8 6-6.1 6zM168 249.2h-2.3c-.6 0-1-.4-1-1s.4-1 1-1h2.3c.6 0 1 .4 1 1s-.4 1-1 1z" class="st1"/><path d="M161.2 248.2H15.7c-2.8 0-5-2.2-5-5v-.2c0-2.8 2.2-5 5-5h224.7c2.8 0 5 2.2 5 5v.3c0 2.8-2.2 5-5 5h-79.2z" class="st0"/><path d="M240.3 249.2h-68.8c-.6 0-1-.4-1-1s.4-1 1-1h68.8c2.2 0 4-1.8 4-4v-.2c0-2.2-1.8-4-4-4H15.7c-2.2 0-4 1.8-4 4v.3c0 2.2 1.8 4 4 4h145.5c.6 0 1 .4 1 1s-.4 1-1 1H15.7c-3.3 0-6-2.7-6-6v-.3c0-3.3 2.7-6 6-6h224.7c3.3 0 6 2.7 6 6v.3c-.1 3.2-2.8 5.9-6.1 5.9z" class="st1"/><path d="M115.2 204.1h25.7V238h-25.7z" class="st0"/><path d="M140.8 239h-25.7c-.6 0-1-.4-1-1v-33.9c0-.6.4-1 1-1h25.7c.6 0 1 .4 1 1V238c0 .5-.4 1-1 1zm-24.6-2h23.7v-31.9h-23.7V237z" class="st1"/><path d="M31.2 204.1h25.7V238H31.2z" class="st0"/><path d="M56.8 239H31.2c-.6 0-1-.4-1-1v-33.9c0-.6.4-1 1-1h25.7c.6 0 1 .4 1 1V238c-.1.5-.5 1-1.1 1zm-24.6-2h23.7v-31.9H32.2V237z" class="st1"/><path d="M199.2 204.1h25.7V238h-25.7z" class="st0"/><path d="M224.8 239h-25.7c-.6 0-1-.4-1-1v-33.9c0-.6.4-1 1-1h25.7c.6 0 1 .4 1 1V238c0 .5-.4 1-1 1zm-24.6-2h23.7v-31.9h-23.7V237z" class="st1"/><path d="M26.1 113.8h87.6v80H26.1z" class="st0"/><path d="M113.6 194.8H26.1c-.6 0-1-.4-1-1v-80c0-.6.4-1 1-1h87.6c.6 0 1 .4 1 1v80c-.1.6-.5 1-1.1 1zm-86.5-2h85.6v-78H27.1v78zM245.3 199.6h-61.8c-.3 0-.5-.2-.5-.5s.2-.5.5-.5h61.8c.3 0 .5.2.5.5s-.2.5-.5.5zM178.7 199.6h-168c-.3 0-.5-.2-.5-.5s.2-.5.5-.5h168c.3 0 .5.2.5.5s-.3.5-.5.5zM245.3 243.7H10.7c-.3 0-.5-.2-.5-.5s.2-.5.5-.5h234.7c.3 0 .5.2.5.5s-.3.5-.6.5z" class="st1"/><path d="M43.4 204.1h11.3V238H43.4zM127.4 204.1h11.3V238h-11.3zM100.3 147.7h18.3V160H31.1v-12.3h64.7zM202.8 147.7h-84.2v-12.3h116.3v12.3h-28z" class="st2"/><path d="M68.2 112.9h13.3V128H68.2z" class="st2" transform="rotate(90 74.846 120.473)"/><path d="M65.7 166.2H79v41.9H65.7z" class="st2" transform="rotate(90 72.346 187.178)"/><path d="M161.3 174.7h45.1v19.1h-60.2v-19.1h11zM101.5 57.9H77.2V44h36.3v13.9h-8zM134.5 7.8h36.3v13.9h-36.3zM65.7 82.7h27v7.8h-27zM65.7 96h27v7.8h-27zM154.3 44h45v7.8h-45zM168.8 65.1h-14.5v-7.8h45v7.8h-26.1zM193.7 82.7v37.8l-16.9-7.7-16.9 7.7V82.7zM211.3 204.1h11.3V238h-11.3z" class="st2"/><path d="M170.9 27.7h-27.4c-.6 0-1-.4-1-1s.4-1 1-1h26.4v-17h-44.5v17h13.4c.6 0 1 .4 1 1s-.4 1-1 1h-14.4c-.6 0-1-.4-1-1v-19c0-.6.4-1 1-1h46.5c.6 0 1 .4 1 1v19c0 .6-.4 1-1 1z" class="st1"/><path d="M165.8 22.1h-36.3c-.3 0-.5-.2-.5-.5V7.8c0-.3.2-.5.5-.5h36.3c.3 0 .5.2.5.5v13.9c0 .2-.2.4-.5.4zm-35.8-1h35.3V8.3H130v12.8zM113.6 64H67.1c-.6 0-1-.4-1-1V44c0-.6.4-1 1-1h46.5c.6 0 1 .4 1 1v19c0 .6-.4 1-1 1zm-45.5-2h44.5V45H68.1v17z" class="st1"/><path d="M108.5 58.4h-8c-.3 0-.5-.2-.5-.5s.2-.5.5-.5h7.5V44.5H72.7v12.9h23.8c.3 0 .5.2.5.5s-.2.5-.5.5H72.2c-.3 0-.5-.2-.5-.5V44c0-.3.2-.5.5-.5h36.3c.3 0 .5.2.5.5v13.9c0 .2-.2.5-.5.5zM194.3 52.3h-45c-.3 0-.5-.2-.5-.5V44c0-.3.2-.5.5-.5h45c.3 0 .5.2.5.5v7.8c0 .3-.2.5-.5.5zm-44.5-1h44v-6.8h-44v6.8zM194.3 65.6h-26.1c-.3 0-.5-.2-.5-.5s.2-.5.5-.5h25.6v-6.8h-44v6.8h14.1c.3 0 .5.2.5.5s-.2.5-.5.5h-14.6c-.3 0-.5-.2-.5-.5v-7.8c0-.3.2-.5.5-.5h45c.3 0 .5.2.5.5v7.8c0 .3-.2.5-.5.5zM87.7 91h-27c-.3 0-.5-.2-.5-.5v-7.8c0-.3.2-.5.5-.5h27c.3 0 .5.2.5.5v7.8c0 .2-.2.5-.5.5zm-26.5-1h26v-6.8h-26V90zM87.7 104.2h-27c-.3 0-.5-.2-.5-.5V96c0-.3.2-.5.5-.5h27c.3 0 .5.2.5.5v7.8c0 .2-.2.4-.5.4zm-26.5-1h26v-6.8h-26v6.8zM82.5 133.3H57.2c-.6 0-1-.4-1-1v-18.5c0-.6.4-1 1-1h25.3c.6 0 1 .4 1 1v18.5c0 .5-.4 1-1 1zm-24.3-2h23.3v-16.5H58.2v16.5z" class="st1"/><path d="M77.4 127.6H62.3c-.3 0-.5-.2-.5-.5v-13.3c0-.3.2-.5.5-.5h15.1c.3 0 .5.2.5.5v13.3c0 .3-.3.5-.5.5zm-14.6-1h14.1v-12.3H62.8v12.3zM194.3 124c-.1 0-.3 0-.4-.1l-22.1-10.1-22.1 10.1c-.3.1-.7.1-1-.1-.3-.2-.5-.5-.5-.8V82.7c0-.6.4-1 1-1h45c.6 0 1 .4 1 1V123c0 .3-.2.7-.5.8 0 .2-.2.2-.4.2zm-22.5-12.2c.1 0 .3 0 .4.1l21.1 9.6V83.7h-43v37.8l21.1-9.6c.1-.1.2-.1.4-.1z" class="st1"/><path d="M154.9 121c-.1 0-.2 0-.3-.1-.1-.1-.2-.3-.2-.4V82.7c0-.3.2-.5.5-.5h33.7c.3 0 .5.2.5.5v37.8c0 .2-.1.3-.2.4-.1.1-.3.1-.5 0l-16.7-7.6-16.7 7.6c.1 0 0 .1-.1.1zm.5-37.8v36.5l16.2-7.4c.1-.1.3-.1.4 0l16.2 7.4V83.2h-32.8zM229.9 148.2h-28c-.3 0-.5-.2-.5-.5s.2-.5.5-.5h27.5v-11.3H114.1v11.3h83.6c.3 0 .5.2.5.5s-.2.5-.5.5h-84.1c-.3 0-.5-.2-.5-.5v-12.3c0-.3.2-.5.5-.5h116.3c.3 0 .5.2.5.5v12.3c0 .2-.2.5-.5.5z" class="st1"/><path d="M113.6 160.5H26.1c-.3 0-.5-.2-.5-.5v-12.3c0-.3.2-.5.5-.5h64.7c.3 0 .5.2.5.5s-.2.5-.5.5H26.6v11.3h86.6v-11.3H95.3c-.3 0-.5-.2-.5-.5s.2-.5.5-.5h18.3c.3 0 .5.2.5.5V160c0 .3-.2.5-.5.5zM95.9 194.8H43.8c-.6 0-1-.4-1-1v-18.5c0-.6.4-1 1-1h8.7c.6 0 1 .4 1 1s-.4 1-1 1h-7.7v16.5H95v-16.5H55.8c-.6 0-1-.4-1-1s.4-1 1-1h40.1c.6 0 1 .4 1 1v18.5c0 .6-.4 1-1 1z" class="st1"/><path d="M90.8 194.3H48.9c-.3 0-.5-.2-.5-.5v-13.3c0-.3.2-.5.5-.5h41.9c.3 0 .5.2.5.5v13.3c0 .3-.2.5-.5.5zm-41.4-1h40.9V181H49.4v12.3zM209.3 194.8h-75c-.6 0-1-.4-1-1v-26.6c0-.6.4-1 1-1h75c.6 0 1 .4 1 1v26.6c0 .6-.5 1-1 1zm-74-2h73v-24.6h-73v24.6z" class="st1"/><g><path d="M201.9 194.3h-60.2c-.3 0-.5-.2-.5-.5v-19.2c0-.3.2-.5.5-.5h11c.3 0 .5.2.5.5s-.2.5-.5.5h-10.5v18.2h59.2v-18.2h-44.6c-.3 0-.5-.2-.5-.5s.2-.5.5-.5h45.1c.3 0 .5.2.5.5v19.2c0 .3-.2.5-.5.5z" class="st1"/></g><g><path d="M217.6 238.5h-11.3c-.3 0-.5-.2-.5-.5v-33.9c0-.3.2-.5.5-.5h11.3c.3 0 .5.2.5.5V238c0 .3-.2.5-.5.5zm-10.8-1h10.3v-32.9h-10.3v32.9z" class="st1"/></g><g><path d="M224.8 239h-25.7c-.6 0-1-.4-1-1v-33.9c0-.6.4-1 1-1h25.7c.6 0 1 .4 1 1V238c0 .5-.4 1-1 1zm-24.6-2h23.7v-31.9h-23.7V237z" class="st1"/></g><g><path d="M140.8 239h-25.7c-.6 0-1-.4-1-1v-33.9c0-.6.4-1 1-1h25.7c.6 0 1 .4 1 1V238c0 .5-.4 1-1 1zm-24.6-2h23.7v-31.9h-23.7V237z" class="st1"/></g><g><path d="M133.6 238.5h-11.3c-.3 0-.5-.2-.5-.5v-33.9c0-.3.2-.5.5-.5h11.3c.3 0 .5.2.5.5V238c0 .3-.2.5-.5.5zm-10.7-1h10.3v-32.9h-10.3v32.9z" class="st1"/></g><g><path d="M56.8 239H31.2c-.6 0-1-.4-1-1v-33.9c0-.6.4-1 1-1h25.7c.6 0 1 .4 1 1V238c-.1.5-.5 1-1.1 1zm-24.6-2h23.7v-31.9H32.2V237z" class="st1"/></g><g><path d="M49.7 238.5H38.4c-.3 0-.5-.2-.5-.5v-33.9c0-.3.2-.5.5-.5h11.3c.3 0 .5.2.5.5V238c0 .3-.3.5-.5.5zm-10.8-1h10.3v-32.9H38.9v32.9z" class="st1"/></g><g><path d="M113.6 194.8H26.1c-.6 0-1-.4-1-1v-80c0-.6.4-1 1-1h87.6c.6 0 1 .4 1 1v80c-.1.6-.5 1-1.1 1zm-86.5-2h85.6v-78H27.1v78z" class="st1"/></g><g><path d="M229.9 194.8H113.6c-.6 0-1-.4-1-1V82.7c0-.6.4-1 1-1h116.3c.6 0 1 .4 1 1v111.2c0 .5-.4.9-1 .9zm-115.3-2h114.3V83.7H114.6v109.1z" class="st1"/></g></svg>

<svg xmlns="http://www.w3.org/2000/svg" id="Layer_1" x="0" y="0" enable-background="new 0 0 256 256" version="1.1" viewBox="0 0 256 256" xml:space="preserve"><style>.st0{fill:#FFFFFF;}
	.st1{fill:#48386A;}
	.st2{fill:#9FEAFF;}</style><path d="M46.6 71.2 46.6 44 134.2 44 134.2 82.7 113.6 82.7 113.6 113.8 46.6 113.8 46.6 75.8z" class="st0"/><path d="M113.6 114.8h-67c-.6 0-1-.4-1-1v-38c0-.6.4-1 1-1s1 .4 1 1v37h65V82.7c0-.6.4-1 1-1h19.5V45H47.6v26.1c0 .6-.4 1-1 1s-1-.4-1-1V44c0-.6.4-1 1-1h87.6c.6 0 1 .4 1 1v38.7c0 .6-.4 1-1 1h-19.5v30.1c-.1.6-.5 1-1.1 1z" class="st1"/><path d="M211.1 32.7 211.1 82.7 134.2 82.7 134.2 44 89.3 44 89.3 7.8 211.1 7.8 211.1 27.7z" class="st0"/><path d="M211.1 83.7h-77c-.6 0-1-.4-1-1V45H89.3c-.6 0-1-.4-1-1V7.8c0-.6.4-1 1-1h121.8c.6 0 1 .4 1 1v19.9c0 .6-.4 1-1 1s-1-.4-1-1V8.8H90.3V43h43.8c.6 0 1 .4 1 1v37.7h75v-49c0-.6.4-1 1-1s1 .4 1 1v50c0 .5-.4 1-1 1z" class="st1"/><path d="M113.6 82.7H229.89999999999998V193.9H113.6z" class="st0"/><path d="M229.9 194.8H113.6c-.6 0-1-.4-1-1V82.7c0-.6.4-1 1-1h116.3c.6 0 1 .4 1 1v111.2c0 .5-.4.9-1 .9zm-115.3-2h114.3V83.7H114.6v109.1z" class="st1"/><path d="M79.8 204.1H15.7c-2.8 0-5-2.2-5-5v-.3c0-2.8 2.2-5 5-5h224.7c2.8 0 5 2.2 5 5v.3c0 2.8-2.2 5-5 5H79.8z" class="st0"/><path d="M240.3 205.1H85.5c-.6 0-1-.4-1-1s.4-1 1-1h154.8c2.2 0 4-1.8 4-4v-.3c0-2.2-1.8-4-4-4H15.7c-2.2 0-4 1.8-4 4v.3c0 2.2 1.8 4 4 4h64.2c.6 0 1 .4 1 1s-.4 1-1 1H15.7c-3.3 0-6-2.7-6-6v-.3c0-3.3 2.7-6 6-6h224.7c3.3 0 6 2.7 6 6v.3c-.1 3.3-2.8 6-6.1 6zM168 249.2h-2.3c-.6 0-1-.4-1-1s.4-1 1-1h2.3c.6 0 1 .4 1 1s-.4 1-1 1z" class="st1"/><path d="M161.2 248.2H15.7c-2.8 0-5-2.2-5-5v-.2c0-2.8 2.2-5 5-5h224.7c2.8 0 5 2.2 5 5v.3c0 2.8-2.2 5-5 5h-79.2z" class="st0"/><path d="M240.3 249.2h-68.8c-.6 0-1-.4-1-1s.4-1 1-1h68.8c2.2 0 4-1.8 4-4v-.2c0-2.2-1.8-4-4-4H15.7c-2.2 0-4 1.8-4 4v.3c0 2.2 1.8 4 4 4h145.5c.6 0 1 .4 1 1s-.4 1-1 1H15.7c-3.3 0-6-2.7-6-6v-.3c0-3.3 2.7-6 6-6h224.7c3.3 0 6 2.7 6 6v.3c-.1 3.2-2.8 5.9-6.1 5.9z" class="st1"/><path d="M115.2 204.1H140.9V238H115.2z" class="st0"/><path d="M140.8 239h-25.7c-.6 0-1-.4-1-1v-33.9c0-.6.4-1 1-1h25.7c.6 0 1 .4 1 1V238c0 .5-.4 1-1 1zm-24.6-2h23.7v-31.9h-23.7V237z" class="st1"/><path d="M31.2 204.1H56.9V238H31.2z" class="st0"/><path d="M56.8 239H31.2c-.6 0-1-.4-1-1v-33.9c0-.6.4-1 1-1h25.7c.6 0 1 .4 1 1V238c-.1.5-.5 1-1.1 1zm-24.6-2h23.7v-31.9H32.2V237z" class="st1"/><path d="M199.2 204.1H224.89999999999998V238H199.2z" class="st0"/><path d="M224.8 239h-25.7c-.6 0-1-.4-1-1v-33.9c0-.6.4-1 1-1h25.7c.6 0 1 .4 1 1V238c0 .5-.4 1-1 1zm-24.6-2h23.7v-31.9h-23.7V237z" class="st1"/><path d="M26.1 113.8H113.69999999999999V193.8H26.1z" class="st0"/><path d="M113.6 194.8H26.1c-.6 0-1-.4-1-1v-80c0-.6.4-1 1-1h87.6c.6 0 1 .4 1 1v80c-.1.6-.5 1-1.1 1zm-86.5-2h85.6v-78H27.1v78zM245.3 199.6h-61.8c-.3 0-.5-.2-.5-.5s.2-.5.5-.5h61.8c.3 0 .5.2.5.5s-.2.5-.5.5zM178.7 199.6h-168c-.3 0-.5-.2-.5-.5s.2-.5.5-.5h168c.3 0 .5.2.5.5s-.3.5-.5.5zM245.3 243.7H10.7c-.3 0-.5-.2-.5-.5s.2-.5.5-.5h234.7c.3 0 .5.2.5.5s-.3.5-.6.5z" class="st1"/><path d="M43.4 204.1H54.7V238H43.4z" class="st2"/><path d="M127.4 204.1H138.70000000000002V238H127.4z" class="st2"/><path d="M100.3 147.7 118.6 147.7 118.6 160 31.1 160 31.1 147.7 95.8 147.7z" class="st2"/><path d="M202.8 147.7 118.6 147.7 118.6 135.4 234.9 135.4 234.9 147.7 206.9 147.7z" class="st2"/><path d="M68.2 112.9H81.5V128H68.2z" class="st2" transform="rotate(90 74.846 120.473)"/><path d="M65.7 166.2H79V208.1H65.7z" class="st2" transform="rotate(90 72.346 187.178)"/><path d="M161.3 174.7 206.4 174.7 206.4 193.8 146.2 193.8 146.2 174.7 157.2 174.7z" class="st2"/><path d="M101.5 57.9 77.2 57.9 77.2 44 113.5 44 113.5 57.9 105.5 57.9z" class="st2"/><path d="M134.5 7.8H170.8V21.7H134.5z" class="st2"/><path d="M65.7 82.7H92.7V90.5H65.7z" class="st2"/><path d="M65.7 96H92.7V103.8H65.7z" class="st2"/><path d="M154.3 44H199.3V51.8H154.3z" class="st2"/><path d="M168.8 65.1 154.3 65.1 154.3 57.3 199.3 57.3 199.3 65.1 173.2 65.1z" class="st2"/><path d="M193.7 82.7 193.7 120.5 176.8 112.8 159.9 120.5 159.9 82.7z" class="st2"/><path d="M211.3 204.1H222.60000000000002V238H211.3z" class="st2"/><path d="M170.9 27.7h-27.4c-.6 0-1-.4-1-1s.4-1 1-1h26.4v-17h-44.5v17h13.4c.6 0 1 .4 1 1s-.4 1-1 1h-14.4c-.6 0-1-.4-1-1v-19c0-.6.4-1 1-1h46.5c.6 0 1 .4 1 1v19c0 .6-.4 1-1 1z" class="st1"/><path d="M165.8 22.1h-36.3c-.3 0-.5-.2-.5-.5V7.8c0-.3.2-.5.5-.5h36.3c.3 0 .5.2.5.5v13.9c0 .2-.2.4-.5.4zm-35.8-1h35.3V8.3H130v12.8zM113.6 64H67.1c-.6 0-1-.4-1-1V44c0-.6.4-1 1-1h46.5c.6 0 1 .4 1 1v19c0 .6-.4 1-1 1zm-45.5-2h44.5V45H68.1v17z" class="st1"/><path d="M108.5 58.4h-8c-.3 0-.5-.2-.5-.5s.2-.5.5-.5h7.5V44.5H72.7v12.9h23.8c.3 0 .5.2.5.5s-.2.5-.5.5H72.2c-.3 0-.5-.2-.5-.5V44c0-.3.2-.5.5-.5h36.3c.3 0 .5.2.5.5v13.9c0 .2-.2.5-.5.5zM194.3 52.3h-45c-.3 0-.5-.2-.5-.5V44c0-.3.2-.5.5-.5h45c.3 0 .5.2.5.5v7.8c0 .3-.2.5-.5.5zm-44.5-1h44v-6.8h-44v6.8zM194.3 65.6h-26.1c-.3 0-.5-.2-.5-.5s.2-.5.5-.5h25.6v-6.8h-44v6.8h14.1c.3 0 .5.2.5.5s-.2.5-.5.5h-14.6c-.3 0-.5-.2-.5-.5v-7.8c0-.3.2-.5.5-.5h45c.3 0 .5.2.5.5v7.8c0 .3-.2.5-.5.5zM87.7 91h-27c-.3 0-.5-.2-.5-.5v-7.8c0-.3.2-.5.5-.5h27c.3 0 .5.2.5.5v7.8c0 .2-.2.5-.5.5zm-26.5-1h26v-6.8h-26V90zM87.7 104.2h-27c-.3 0-.5-.2-.5-.5V96c0-.3.2-.5.5-.5h27c.3 0 .5.2.5.5v7.8c0 .2-.2.4-.5.4zm-26.5-1h26v-6.8h-26v6.8zM82.5 133.3H57.2c-.6 0-1-.4-1-1v-18.5c0-.6.4-1 1-1h25.3c.6 0 1 .4 1 1v18.5c0 .5-.4 1-1 1zm-24.3-2h23.3v-16.5H58.2v16.5z" class="st1"/><path d="M77.4 127.6H62.3c-.3 0-.5-.2-.5-.5v-13.3c0-.3.2-.5.5-.5h15.1c.3 0 .5.2.5.5v13.3c0 .3-.3.5-.5.5zm-14.6-1h14.1v-12.3H62.8v12.3zM194.3 124c-.1 0-.3 0-.4-.1l-22.1-10.1-22.1 10.1c-.3.1-.7.1-1-.1-.3-.2-.5-.5-.5-.8V82.7c0-.6.4-1 1-1h45c.6 0 1 .4 1 1V123c0 .3-.2.7-.5.8 0 .2-.2.2-.4.2zm-22.5-12.2c.1 0 .3 0 .4.1l21.1 9.6V83.7h-43v37.8l21.1-9.6c.1-.1.2-.1.4-.1z" class="st1"/><path d="M154.9 121c-.1 0-.2 0-.3-.1-.1-.1-.2-.3-.2-.4V82.7c0-.3.2-.5.5-.5h33.7c.3 0 .5.2.5.5v37.8c0 .2-.1.3-.2.4-.1.1-.3.1-.5 0l-16.7-7.6-16.7 7.6c.1 0 0 .1-.1.1zm.5-37.8v36.5l16.2-7.4c.1-.1.3-.1.4 0l16.2 7.4V83.2h-32.8zM229.9 148.2h-28c-.3 0-.5-.2-.5-.5s.2-.5.5-.5h27.5v-11.3H114.1v11.3h83.6c.3 0 .5.2.5.5s-.2.5-.5.5h-84.1c-.3 0-.5-.2-.5-.5v-12.3c0-.3.2-.5.5-.5h116.3c.3 0 .5.2.5.5v12.3c0 .2-.2.5-.5.5z" class="st1"/><path d="M113.6 160.5H26.1c-.3 0-.5-.2-.5-.5v-12.3c0-.3.2-.5.5-.5h64.7c.3 0 .5.2.5.5s-.2.5-.5.5H26.6v11.3h86.6v-11.3H95.3c-.3 0-.5-.2-.5-.5s.2-.5.5-.5h18.3c.3 0 .5.2.5.5V160c0 .3-.2.5-.5.5zM95.9 194.8H43.8c-.6 0-1-.4-1-1v-18.5c0-.6.4-1 1-1h8.7c.6 0 1 .4 1 1s-.4 1-1 1h-7.7v16.5H95v-16.5H55.8c-.6 0-1-.4-1-1s.4-1 1-1h40.1c.6 0 1 .4 1 1v18.5c0 .6-.4 1-1 1z" class="st1"/><path d="M90.8 194.3H48.9c-.3 0-.5-.2-.5-.5v-13.3c0-.3.2-.5.5-.5h41.9c.3 0 .5.2.5.5v13.3c0 .3-.2.5-.5.5zm-41.4-1h40.9V181H49.4v12.3zM209.3 194.8h-75c-.6 0-1-.4-1-1v-26.6c0-.6.4-1 1-1h75c.6 0 1 .4 1 1v26.6c0 .6-.5 1-1 1zm-74-2h73v-24.6h-73v24.6z" class="st1"/><g><path d="M201.9 194.3h-60.2c-.3 0-.5-.2-.5-.5v-19.2c0-.3.2-.5.5-.5h11c.3 0 .5.2.5.5s-.2.5-.5.5h-10.5v18.2h59.2v-18.2h-44.6c-.3 0-.5-.2-.5-.5s.2-.5.5-.5h45.1c.3 0 .5.2.5.5v19.2c0 .3-.2.5-.5.5z" class="st1"/></g><g><path d="M217.6 238.5h-11.3c-.3 0-.5-.2-.5-.5v-33.9c0-.3.2-.5.5-.5h11.3c.3 0 .5.2.5.5V238c0 .3-.2.5-.5.5zm-10.8-1h10.3v-32.9h-10.3v32.9z" class="st1"/></g><g><path d="M224.8 239h-25.7c-.6 0-1-.4-1-1v-33.9c0-.6.4-1 1-1h25.7c.6 0 1 .4 1 1V238c0 .5-.4 1-1 1zm-24.6-2h23.7v-31.9h-23.7V237z" class="st1"/></g><g><path d="M140.8 239h-25.7c-.6 0-1-.4-1-1v-33.9c0-.6.4-1 1-1h25.7c.6 0 1 .4 1 1V238c0 .5-.4 1-1 1zm-24.6-2h23.7v-31.9h-23.7V237z" class="st1"/></g><g><path d="M133.6 238.5h-11.3c-.3 0-.5-.2-.5-.5v-33.9c0-.3.2-.5.5-.5h11.3c.3 0 .5.2.5.5V238c0 .3-.2.5-.5.5zm-10.7-1h10.3v-32.9h-10.3v32.9z" class="st1"/></g><g><path d="M56.8 239H31.2c-.6 0-1-.4-1-1v-33.9c0-.6.4-1 1-1h25.7c.6 0 1 .4 1 1V238c-.1.5-.5 1-1.1 1zm-24.6-2h23.7v-31.9H32.2V237z" class="st1"/></g><g><path d="M49.7 238.5H38.4c-.3 0-.5-.2-.5-.5v-33.9c0-.3.2-.5.5-.5h11.3c.3 0 .5.2.5.5V238c0 .3-.3.5-.5.5zm-10.8-1h10.3v-32.9H38.9v32.9z" class="st1"/></g><g><path d="M113.6 194.8H26.1c-.6 0-1-.4-1-1v-80c0-.6.4-1 1-1h87.6c.6 0 1 .4 1 1v80c-.1.6-.5 1-1.1 1zm-86.5-2h85.6v-78H27.1v78z" class="st1"/></g><g><path d="M229.9 194.8H113.6c-.6 0-1-.4-1-1V82.7c0-.6.4-1 1-1h116.3c.6 0 1 .4 1 1v111.2c0 .5-.4.9-1 .9zm-115.3-2h114.3V83.7H114.6v109.1z" class="st1"/></g></svg>
